X:187
T:O Love, How Deep, How Broad, How High
%%stretchlast false
M:3/4
L:1/4
K:Eb clef=C1
"^vi"[C,G,Ec] [C,G,Ec]2 | "^I"[E,G,EB] "^IV"[A,,A,Ec]2 | "^iii"[G,,G,DB] "^I¹"[G,,G,EB] "^IV"[A,,CEA]3/2 | [B,,CEA]/ "^vi¹"[E,CEG]2 | "^IV"[A,,CEc] [A,Ec] "^I¹"[G,B,EB] | "^I"[E,B,EG] "^ii"[F,A,CF] "^vi¹"[E,G,CG] | "^ii¹"[A,CF]/ "^vi+"[A,C]/ "^vi¹"[E,G,CE]/ "^vi"[F,G,CE]/ [G,CD] | "^III"[G,,G,=B,D]/ "^III7"[G,,F,=B,D]/ "^vi"[C,E,C]2 | [C,CEG] "^iii"[G,B,DB] "^I¹"[G,B,EB] | "^I"[E,G,EB] "^IV"[A,Ec] "^I¹"[G,B,EB] | "^ii"[F,CFA] "^I¹"[G,B,EG]/ [A,B,EG]/ "^i"[B,EF] | "^V"[B,,B,DF] "^I"[E,G,B,E]2 | "^IV²"[E,A,CE] "^I"[E,B,G] "^vi¹"[E,G,CG] | "^vi"[C,E,CG] "^viiø7"[D,A,CF] "^III7²"[D,G,=B,F] | "^vi¹"[E,G,CE] "^ii7"[F,A,CE]/ "^vi²"[G,CE]/ "^viiø7¹"[F,A,CD] | "^V/vi"[G,=B,D] "^vi"[C,E,C]2 |]
